app/assets/images/icon_youtube_red_85x60.svg

<svg xmlns="http://www.w3.org/2000/svg" width="85" height="60" viewBox="0 0 85 60"><path fill-rule="evenodd" clip-rule="evenodd" fill="#cc181e" d="M84.15 26.4v6.35c0 2.833-.15 5.967-.45 9.4-.133 1.7-.267 3.117-.4 4.25l-.15.95c-.167.767-.367 1.517-.6 2.25-.667 2.367-1.533 4.083-2.6 5.15-1.367 1.4-2.967 2.383-4.8 2.95-.633.2-1.316.333-2.05.4-.767.1-1.3.167-1.6.2-4.9.367-11.283.617-19.15.75-2.434.034-4.883.067-7.35.1h-2.95c-3.633-.05-7.55-.05-11.75-.15-8.433-.167-14.05-.383-16.85-.65-.067-.033-.667-.117-1.8-.25-.9-.133-1.683-.283-2.35-.45-2.066-.533-3.783-1.5-5.15-2.9-1.033-1.067-1.9-2.783-2.6-5.15-.233-.7-.45-1.5-.55-2.25l-.2-.95c-.133-1.133-.267-2.55-.4-4.25-.267-3.45-.4-6.55-.4-9.4v-6.35c0-2.833.133-5.95.4-9.35l.4-4.25c.167-.966.417-2.05.75-3.25.7-2.333 1.567-4.033 2.6-5.1 1.367-1.434 2.967-2.434 4.8-3 .633-.167 1.333-.3 2.1-.4.4-.066.917-.133 1.55-.2 4.9-.333 11.283-.567 19.15-.7 3.9-.05 7.35-.15 10.25-.15l3 .05c2.467 0 4.9 0 7.4.1 7.833.1 14.2.4 19.1.7.3 0 .8.1 1.6.2.733.1 1.4.2 2 .4 1.833.6 3.4 1.6 4.8 3 1.066 1.1 1.9 2.8 2.6 5.1.367 1.2.6 2.3.8 3.25l.4 4.25c.3 3.35.5 6.55.5 9.35zm-50.85 15l22.7-11.8-22.7-11.85v23.65z"/><path fill-rule="evenodd" clip-rule="evenodd" fill="#fff" d="M33.3 41.4v-23.6l22.7 11.8z"/></svg>

<svg xmlns="http://www.w3.org/2000/svg" width="85px" height="60px" viewBox="0 0 85 60" version="1.1"><path fill-rule="evenodd" clip-rule="evenodd" fill="#cc181e" d="M84.15 26.4v6.35c0 2.833-0.15 5.967-0.45 9.4c-0.133 1.7-0.267 3.117-0.4 4.25l-0.15 0.95c-0.167 0.767-0.367 1.517-0.6 2.25c-0.667 2.367-1.533 4.083-2.6 5.15c-1.367 1.4-2.967 2.383-4.8 2.95c-0.633 0.2-1.316 0.333-2.05 0.4c-0.767 0.1-1.3 0.167-1.6 0.2c-4.9 0.367-11.283 0.617-19.15 0.75c-2.434 0.034-4.883 0.067-7.35 0.1h-2.95C38.417 59.1 34.5 59.1 30.3 59c-8.433-0.167-14.05-0.383-16.85-0.65c-0.067-0.033-0.667-0.117-1.8-0.25c-0.9-0.133-1.683-0.283-2.35-0.45c-2.066-0.533-3.783-1.5-5.15-2.9c-1.033-1.067-1.9-2.783-2.6-5.15C1.317 48.9 1.1 48.1 1 47.35L0.8 46.4c-0.133-1.133-0.267-2.55-0.4-4.25C0.133 38.7 0 35.6 0 32.75V26.4c0-2.833 0.133-5.95 0.4-9.35l0.4-4.25c0.167-0.966 0.417-2.05 0.75-3.25c0.7-2.333 1.567-4.033 2.6-5.1c1.367-1.434 2.967-2.434 4.8-3c0.633-0.167 1.333-0.3 2.1-0.4c0.4-0.066 0.917-0.133 1.55-0.2c4.9-0.333 11.283-0.567 19.15-0.7C35.65 0.1 39.1 0 42 0L45 0.05c2.467 0 4.9 0 7.4 0.1c7.833 0.1 14.2 0.4 19.1 0.7c0.3 0 0.8 0.1 1.6 0.2c0.733 0.1 1.4 0.2 2 0.4c1.833 0.6 3.4 1.6 4.8 3c1.066 1.1 1.9 2.8 2.6 5.1c0.367 1.2 0.6 2.3 0.8 3.25l0.4 4.25C84 20.4 84.2 23.6 84.2 26.4z M33.3 41.4L56 29.6L33.3 17.75V41.4z"/><polygon fill-rule="evenodd" clip-rule="evenodd" fill="#FFFFFF" points="33.3,41.4 33.3,17.8 56,29.6"/></svg>
